boxicons/svg/regular/bx-left-top-arrow-circle.svg

<svg xmlns="http://www.w3.org/2000/svg" width="24" height="24" viewBox="0 0 24 24"><path d="M11.993 2.007a9.928 9.928 0 0 0-7.071 2.922c-3.899 3.899-3.899 10.243 0 14.143a9.931 9.931 0 0 0 7.071 2.923 9.928 9.928 0 0 0 7.071-2.923c3.899-3.899 3.899-10.243 0-14.143a9.927 9.927 0 0 0-7.071-2.922zm5.657 15.65a7.945 7.945 0 0 1-5.657 2.337c-2.141 0-4.15-.83-5.657-2.337-3.119-3.119-3.119-8.195 0-11.314a7.946 7.946 0 0 1 5.657-2.336c2.142 0 4.15.829 5.657 2.336 3.12 3.119 3.12 8.195 0 11.314z"/><path d="M14.657 9H8.993v5.663l2.125-2.124 3.215 3.214 1.414-1.414-3.215-3.214z"/></svg>

<svg xmlns="http://www.w3.org/2000/svg" width="24" height="24" viewBox="0 0 24 24"><path d="M11.993,2.007c-2.675,0-5.187,1.037-7.071,2.922c-3.899,3.899-3.899,10.243,0,14.143c1.885,1.885,4.396,2.923,7.071,2.923 c2.676,0,5.187-1.038,7.071-2.923c3.899-3.899,3.899-10.243,0-14.143C17.18,3.044,14.669,2.007,11.993,2.007z M17.65,17.657 c-1.507,1.507-3.516,2.337-5.657,2.337c-2.141,0-4.15-0.83-5.657-2.337c-3.119-3.119-3.119-8.195,0-11.314 c1.507-1.507,3.517-2.336,5.657-2.336c2.142,0,4.15,0.829,5.657,2.336C20.77,9.462,20.77,14.538,17.65,17.657z"/><path d="M14.657 9L8.993 9 8.993 14.663 11.118 12.539 14.333 15.753 15.747 14.339 12.532 11.125z"/></svg>
